!!!OTL: SCHAETZICHEN WAS MACHEST DU
!!!ARE: Europa, Mitteleuropa, Deutschland, Hildburghausen
!!!SCT: E0729
!!!YEM: Copyright 1995, estate of Helmut Schaffrath.
**kern
*ICvox
*Ivox
*M2/4
*k[b-]
*F:
{16f
16g
8a
16cc
16b-
=1
4a
4g
=2
8f}
{16f
16g
8a
16cc
16b-
=3
4a
4g
=4
4f
8r}
{16f
16g
=5
8a
8a
8a
16g
16a
=6
4.b-}
{16e
16f
=7
8g
8g
8g
16f
16g
=8
8a}
{16f
16g
8a
16cc
16b-
=9
4a
4g
=10
4f
4r
=11
8r}
==
!!!AGN: Liebes - Lied, Leid, Klage
!!!ONB: ESAC (Essen Associative Code) Database: ERK2
!!!AMT: simple duple
!!!AIN: vox
!!!EED: Helmut Schaffrath
!!!EEV: 1.0
*-
